X:1
T:Nazrey, 88.88.10.8.10.8
T:Nazrey, 88.88.10.8.10.8
T:John Turner Layton, Sr., 1898
T:Public Domain Courtesy of the Cyber Hymnal™
C:John Turner Layton, Sr., 1898
Z:Public Domain
Z:Courtesy of the Cyber Hymnal™
%%score ( 1 2 ) ( 3 4 )
L:1/8
Q:1/4=103
M:4/4
K:C
V:1 treble 
V:2 treble 
V:3 bass 
V:4 bass 
V:1
 [EG][CE][CG] | [Ec]2 [Ec]2 [Gc]2 [GB]2 | ([GB]4 [FA])[DA][D^F][DA] | [^Fd]2 [Fd]2 [Ad]2 [Ac]2 | %4
 [Ac]4 [GB]B^GB | [^Ge]2 [Ge]2 [Ee]2 [Ed]2 | ([E-d]4 [Ec])[Ff][Ge][Fd] | [Ec]2 [Ec]2 [FB]2 [FB]2 | %8
 [Ec]4- [Ec]GEG | [Ec]2 [Ec]2 z G^FG | [Gd]2 [Gd]2 z Gcd | [Ge]3 [Fd] [Ec]2 [DB]2 | %12
 [Ec] (G/G/GG/G/ G)GEG | [Ec]2 [Ec]2 z G^FG | [Gd]2 [Gd]2 z Gcd | [Ge]3 [Fd] [Ec]2 [DB]2 | %16
 [Ec]4- [Ec] |] %17
V:2
 x3 | x8 | x8 | x8 | x5 B^GB | x8 | x8 | x8 | x8 | x8 | x8 | x8 | x8 | x8 | x8 | x8 | x5 |] %17
V:3
 [C,C][G,C][E,C] | [C,G,]2 [C,G,]2 [E,C]2 [E,C]2 | [F,C]4- [F,C][^F,A,]A,[F,A,] | %3
 [D,A,]2 [D,A,]2 [^F,D]2 [F,D]2 | [G,D]4- [G,D]B,^G,B, | [E,B,]2 [E,B,]2 [^G,B,]2 [G,B,]2 | %6
 ([A,-B,]4 [A,C])[D,A,][E,C][F,A,] | G,2 G,2 [G,,G,]2 [G,,G,]2 | [C,G,]4- [C,G,] z3 | %9
 [C,G,]2 [C,G,]2 z4 | [G,B,]2 [G,B,]2 z4 | [C,C]3 [F,A,] G,2 G,2 | [C,G,] z4 z3 | %13
 [C,G,]2 [C,G,]2 z4 | [G,B,]2 [G,B,]2 z4 | [C,C]3 [F,A,] G,2 G,2 | [C,G,]4- [C,G,] |] %17
V:4
 x3 | x8 | x6 A, x | x8 | x5 B,^G,B, | x8 | x8 | G,2 G,2 x4 | x8 | x8 | x8 | x4 G,2 G,2 | x8 | x8 | %14
 x8 | x4 G,2 G,2 | x5 |] %17

